packages/tokens/icons/carSignal/size32Px.svg

<svg viewBox="0 0 32 32" fill="none" xmlns="http://www.w3.org/2000/svg" width="1em" height="1em"><path d="M5.5 26.5V28.5C5.5 29.0523 5.94772 29.5 6.5 29.5H8.5C9.05228 29.5 9.5 29.0523 9.5 28.5V26.5" stroke="currentColor"/><path d="M22.5 26.5V28.5C22.5 29.0523 22.9477 29.5 23.5 29.5H25.5C26.0523 29.5 26.5 29.0523 26.5 28.5V26.5" stroke="currentColor"/><path d="M5.5 20.5C5.5 19.3954 6.39543 18.5 7.5 18.5L24.5 18.5C25.6046 18.5 26.5 19.3954 26.5 20.5L26.5 24.5L5.5 24.5L5.5 20.5Z" stroke="currentColor"/><path d="M5.5 21.5H9C10.3807 21.5 11.5 22.6193 11.5 24V24.5H5.5L5.5 21.5Z" stroke="currentColor"/><path d="M26.5 21.5H23C21.6193 21.5 20.5 22.6193 20.5 24V24.5H26.5V21.5Z" stroke="currentColor"/><line x1="13.5" y1="22.5" x2="18.5" y2="22.5" stroke="currentColor" stroke-linecap="round"/><path d="M6.5 18.5H4.5C4.22386 18.5 4 18.7239 4 19L4 20C4 20.2761 4.22386 20.5 4.5 20.5H5.5" stroke="currentColor"/><path d="M26 18.5H27.5C27.7761 18.5 28 18.7239 28 19V20C28 20.2761 27.7761 20.5 27.5 20.5H26.5306" stroke="currentColor"/><path d="M15.8765 10.5H22.2314C23.1397 10.5 23.9309 11.0583 24.149 11.8529L26 19.1M16.1235 10.5L9.7686 10.5C8.86029 10.5 8.06906 11.0583 7.85105 11.8529L6 19.1" stroke="currentColor"/><path d="M7.5 12.5L24.5 12.5M5.5 24.5L5.5 26.5L26.5 26.5V24.5" stroke="currentColor"/><path d="M11 5C11.5556 4 13.2222 2.5 16 2.5C18.7778 2.5 20.375 3.95833 21 5" stroke="currentColor" stroke-linecap="round" stroke-linejoin="round"/><path d="M12.6666 7.16667C13.2222 6.125 14.6111 5.5 16 5.5C17.3888 5.5 18.7777 6.125 19.3333 7.16667" stroke="currentColor" stroke-linecap="round" stroke-linejoin="round"/><path d="M14.3333 8.83333C14.6138 8.3428 15.2544 8 15.9999 8C16.7454 8 17.3861 8.3428 17.6666 8.83333" stroke="currentColor" stroke-linecap="round" stroke-linejoin="round"/></svg>

<svg xmlns="http://www.w3.org/2000/svg" fill="none" viewBox="0 0 32 32" width="1em" height="1em"><path stroke="currentColor" d="M5.5 26.5v2a1 1 0 0 0 1 1h2a1 1 0 0 0 1-1v-2m13 0v2a1 1 0 0 0 1 1h2a1 1 0 0 0 1-1v-2m-21-6a2 2 0 0 1 2-2h17a2 2 0 0 1 2 2v4h-21v-4Z"/><path stroke="currentColor" d="M5.5 21.5H9a2.5 2.5 0 0 1 2.5 2.5v.5h-6v-3Zm21 0H23a2.5 2.5 0 0 0-2.5 2.5v.5h6v-3Z"/><path stroke="currentColor" stroke-linecap="round" d="M13.5 22.5h5"/><path stroke="currentColor" d="M6.5 18.5h-2a.5.5 0 0 0-.5.5v1a.5.5 0 0 0 .5.5h1m20.5-2h1.5a.5.5 0 0 1 .5.5v1a.5.5 0 0 1-.5.5h-.97"/><path stroke="currentColor" d="M15.877 10.5h6.354c.909 0 1.7.558 1.918 1.353L26 19.1m-9.877-8.6H9.77c-.909 0-1.7.558-1.918 1.353L6 19.1m1.5-6.6h17m-19 12v2h21v-2"/><path stroke="currentColor" stroke-linecap="round" stroke-linejoin="round" d="M11 5c.556-1 2.222-2.5 5-2.5s4.375 1.458 5 2.5m-8.333 2.167C13.222 6.125 14.61 5.5 16 5.5c1.389 0 2.778.625 3.333 1.667m-5 1.666C14.613 8.343 15.254 8 16 8c.745 0 1.386.343 1.667.833"/></svg>
